img/social/instagram.svg

<svg width="21.339" height="20" fill="none" xmlns="http://www.w3.org/2000/svg"><defs><clipPath id="a"><path fill="#fff" fill-opacity="0" d="M0 0h21.339v20H0z"/></clipPath></defs><path fill="none" d="M0 0h21.339v20H0z"/><g clip-path="url(#a)" fill="#FFF"><path d="M14.67 0H6.66C2.98 0 0 2.79 0 6.25v7.5C0 17.2 2.98 20 6.66 20h8.01c3.68 0 6.66-2.8 6.66-6.25v-7.5c0-3.46-2.98-6.25-6.66-6.25Zm4.66 13.75c0 2.41-2.09 4.37-4.66 4.37H6.66C4.09 18.12 2 16.16 2 13.75v-7.5c0-2.42 2.09-4.38 4.66-4.38h8.01c2.57 0 4.66 1.96 4.66 4.38v7.5Z"/><path d="M10.66 5c-2.94 0-5.33 2.23-5.33 5 0 2.76 2.39 5 5.33 5 2.95 0 5.34-2.24 5.34-5 0-2.77-2.39-5-5.34-5Zm0 8.12c-1.83 0-3.33-1.4-3.33-3.12 0-1.73 1.5-3.13 3.33-3.13C12.5 6.87 14 8.27 14 10c0 1.72-1.5 3.12-3.34 3.12Z"/><path d="M17.11 4.62c0 .37-.32.67-.71.67-.39 0-.71-.3-.71-.67 0-.37.32-.67.71-.67.39 0 .71.3.71.67Z" fill-rule="evenodd"/></g></svg>

<svg width="21.338928" height="20.000000" viewBox="0 0 21.3389 20" fill="none" xmlns="http://www.w3.org/2000/svg" xmlns:xlink="http://www.w3.org/1999/xlink">
	<desc>
			Created with Pixso.
	</desc>
	<defs>
		<clipPath id="clip3_108">
			<rect width="21.338913" height="20.000000" fill="white" fill-opacity="0"/>
		</clipPath>
	</defs>
	<rect width="21.338913" height="20.000000" fill="#FFFFFF" fill-opacity="0"/>
	<g clip-path="url(#clip3_108)">
		<path d="M14.67 0L6.66 0C2.98 0 0 2.79 0 6.25L0 13.75C0 17.2 2.98 20 6.66 20L14.67 20C18.35 20 21.33 17.2 21.33 13.75L21.33 6.25C21.33 2.79 18.35 0 14.67 0ZM19.33 13.75C19.33 16.16 17.24 18.12 14.67 18.12L6.66 18.12C4.09 18.12 2 16.16 2 13.75L2 6.25C2 3.83 4.09 1.87 6.66 1.87L14.67 1.87C17.24 1.87 19.33 3.83 19.33 6.25L19.33 13.75Z" fill="#FFFFFF" fill-opacity="1.000000" fill-rule="nonzero"/>
		<path d="M10.66 5C7.72 5 5.33 7.23 5.33 10C5.33 12.76 7.72 15 10.66 15C13.61 15 16 12.76 16 10C16 7.23 13.61 5 10.66 5ZM10.66 13.12C8.83 13.12 7.33 11.72 7.33 10C7.33 8.27 8.83 6.87 10.66 6.87C12.5 6.87 14 8.27 14 10C14 11.72 12.5 13.12 10.66 13.12Z" fill="#FFFFFF" fill-opacity="1.000000" fill-rule="nonzero"/>
		<path d="M17.11 4.62C17.11 4.99 16.79 5.29 16.4 5.29C16.01 5.29 15.69 4.99 15.69 4.62C15.69 4.25 16.01 3.95 16.4 3.95C16.79 3.95 17.11 4.25 17.11 4.62Z" fill="#FFFFFF" fill-opacity="1.000000" fill-rule="evenodd"/>
	</g>
</svg>
